X:1
T: Geordie Affleck
C:
R:Reel
Q: 232
K:Eb
M:4/4
L:1/8
|:A|GA BG E2 G2|FB, DF BA GF|GA BG E2 G2|FB, DF E3A|
GA BG E2 G2|FB, DF BA GF|GA BG E2 G2|FB, DF E3A|
GA BG ed cB|=AF Ac fe dc|de fd B2 d2|cF =Ac B3d|
ed cB =AF Ac|fe dc BA GF|GA BG E2 G2|FB, DF E3:|
